X:1
T:O Praise the Lord!
T:O Praise the Lord!
T:Barney Elliott Warren
T:Charles W. Naylor, 1900
T:Public Domain Courtesy of the Cyber Hymnal™
T:Public Domain Courtesy of the Cyber Hymnal™
C:Barney Elliott Warren
Z:Public Domain
Z:Courtesy of the Cyber Hymnal™
%%score ( 1 2 ) ( 3 4 )
L:1/8
Q:1/4=113
M:4/4
K:C
V:1 treble 
V:2 treble 
V:3 bass 
V:4 bass 
V:1
 C2 E>C G4 | [Ge]2 [Gd]2 [Gc]2 [EG]2 | [FA]2 [Fc]2 [EG]2 [CE]2 | [CD]2 C4 | [EG]>[EG] | %5
w: 1.~O praise the Lord,|all ye na- tions!|Praise Him, all ye|peo- ple!|For His|
w: 2.~O praise the Lord,|all ye na- tions!|Praise Him for His|good- ness!|For He|
w: 3.~O praise the Lord,|all ye na- tions!|He is strong and|might- y:|For He|
w: 4.~O praise the Lord,|all ye na- tions!|For His love un-|fail- ing!|He doth|
 [FA]2 [FA]>[FA] [GB]2 [FB]>[FB] | [Ec]2 [Ec]2 [Gd]2 [Gc]>[Gd] | [Ge]2 [Ge]>[Fd] [Ec]2 G2 | %8
w: mer- ci- ful kind- ness is|great toward us, And the|truth of the Lord en-|
w: sav- eth His peo- ple from|all their sins, And pre-|serv- eth the souls of|
w: keep- eth our steps, that we|shall not fall, And de-|liv- ers His saints from|
w: ten- der- ly lead in the|path of peace, And His|Name is a ref- uge|
 ([FA][Ac]) [Ac]>[FA] [EG]2 [CE]2 | [EG]4 [FA]3 [FB] | [Ec]6 z2 ||"^Refrain" [EG]4 [CE]4 | %12
w: dur- * eth for- ev- er:|Praise ye the|Lord!||
w: all * who will trust Him:|Praise ye the|Lord!|Praise Him,|
w: all * their temp- ta- tions:|Praise ye the|Lord!||
w: from * the op- press- or:|Praise ye the|Lord!||
 [Ec]4 [EG]4 | (e2 d2) [Gc]2 [Gd]2 | [Ge]6 z2 | [EG]4 [CE]4 | [Ec]4 [EG]4 | %17
w: |||||
w: praise Him!|Praise * ye the|Lord!|Praise Him,|praise Him!|
w: |||||
w: |||||
 ([Ge]2 [Fd]2) [Ec]2 [DB]2 | [Ec]6 z2 |] %19
w: ||
w: Praise * ye the|Lord!|
w: ||
w: ||
V:2
 C2 E>C G4 | x8 | x8 | x2 C4 | x2 | x8 | x8 | x6 G2 | x8 | x8 | x8 || x8 | x8 | G4 x4 | x8 | x8 | %16
 x8 | x8 | x8 |] %19
V:3
 C,2 E,>C, G,4 | [C,C]2 [D,B,]2 [E,C]2 [C,C]2 | [F,C]2 [F,A,]2 [G,C]2 [G,,G,]2 | [C,F,]2 [C,E,]4 | %4
w: ~ ~ ~ ~|~ ~ ~ ~|~ ~ ~ ~|~ ~|
 [C,C]>[C,C] | [F,C]2 [F,C]>[F,C] [D,D]2 [D,G,]>[D,G,] | [C,G,]2 [C,C]2 [G,B,]2 [E,C]>[D,B,] | %7
w: ~ ~|~ ~ ~ ~ ~ ~|~ ~ ~ ~ ~|
 [C,C]2 [C,C]>[C,C] [C,C]2 [E,C]2 | [F,C]2 [F,C]>[F,C] [C,C]2 [C,G,]2 | [G,,C]4 [G,,G,]3 [G,,G,] | %10
w: ~ ~ ~ ~ ~|~ ~ ~ ~ ~|~ ~ ~|
 [C,G,]6 z2 || [C,C]2 [C,C]2 [C,G,]2 [C,G,]2 | [C,G,]2 [C,G,]2 [C,C]2 [C,C]2 | %13
w: ~|Praise Him, praise Him!|praise, O praise Him!|
 ([C,C]2 [D,B,]2) [E,C]2 [G,B,]2 | CC[G,C][E,C] [C,C]2 z2 | [C,C]2 [C,C]2 [C,G,]2 [C,G,]2 | %16
w: Praise * ye the|Lord, O praise the Lord!|Praise Him, praise Him!|
 [C,G,]2 [C,G,]2 [C,C]2 [C,C]2 | ([C,C]2 [F,A,]2) G,2 [G,,G,]2 | [C,G,]6 z2 |] %19
w: praise, O praise Him!|||
V:4
 C,2 E,>C, G,4 | x8 | x8 | x6 | x2 | x8 | x8 | x8 | x8 | x8 | x8 || x8 | x8 | x8 | CC x6 | x8 | %16
 x8 | x4 G,2 x2 | x8 |] %19

